lg/fresh.svg

<svg viewBox="0 0 256 216" version="1.1" xmlns="http://www.w3.org/2000/svg" preserveAspectRatio="xMidYMid" height="1em" width="1em">
  <g>
    <path d="M240.381883,20.8655042 C277.729768,112.030789 240.381883,161.045545 208.78636,188.070064 C216.507651,215.094583 185.730584,220.669355 174.04055,207.373292 C139.626755,219.240917 69.7104634,218.854852 19.6147264,168.766836 C-7.40979261,141.742317 13.6693322,81.6243443 85.2457012,41.3655322 C147.01603,6.619722 208.78636,-12.6835059 240.381883,20.8655042 Z" fill="#FFDB1E"/>
    <path d="M85.2457012,41.3655322 C138.121103,6.64288587 201.258101,-7.89630537 227.070377,14.5726519 C266.696043,49.0868234 143.155385,127.16452 96.827638,145.602963 C46.6392455,165.577943 73.6637645,211.233938 46.6392455,211.233938 C23.475372,211.233938 27.3360176,180.348773 6.61979341,151.393931 C-5.61845306,134.291271 24.7107786,81.1147391 85.2457012,41.3655322 Z" fill="#FFFFFF"/>
    <path d="M83.1265451,38.1384962 C72.8123971,44.9111026 63.1433013,52.2715781 54.3076479,59.9158936 L49.9601469,63.7602971 C12.1861356,97.9032661 -8.71747771,136.594638 3.48017349,153.640567 C4.62160888,155.235939 5.70905676,156.870897 6.74884288,158.549743 C9.46876011,162.941342 11.8086201,167.523166 14.0485865,172.698022 L15.6809103,176.619994 L21.4680871,191.92415 C27.7925368,208.312829 33.9041708,215.094583 46.6392455,215.094583 C58.2601185,215.094583 62.3007372,209.582698 65.1638044,195.378665 L66.4918836,188.431257 L67.3079326,184.461192 L67.8032414,182.330484 L68.2980068,180.468355 L68.8251735,178.751187 L69.4176866,177.055361 L70.1084907,175.257259 C74.4570591,164.309868 82.2896279,156.071933 96.0353826,150.112107 L98.2552591,149.189951 C124.964788,138.559558 167.413713,113.174241 196.636547,89.0957211 L200.684436,85.7015089 C202.662519,84.0126424 204.571406,82.3363242 206.409271,80.6734051 L209.989768,77.3656842 C237.867542,51.0508726 247.252745,28.3113864 230.675134,12.6314715 L229.60516,11.6607005 C202.918374,-11.5694959 139.278963,1.2638726 83.1265451,38.1384962 Z M224.535594,17.4846033 C237.559769,28.8287307 229.900666,47.8689525 204.93978,71.5142275 L201.429097,74.7668367 C200.826216,75.3135988 200.214477,75.8626669 199.59392,76.4140049 L195.765084,79.7489802 C194.453746,80.8695245 193.107455,81.9988577 191.726528,83.1366897 C164.133769,105.872089 124.319337,129.904582 98.2398916,140.853949 L95.4000168,142.015975 C78.2828498,148.828607 68.2895396,158.920898 62.9326039,172.406823 L61.8102734,175.383883 L61.1900831,177.258192 L60.6304563,179.198222 C60.5402387,179.534372 60.4510496,179.878762 60.3621414,180.234142 L59.8260834,182.520313 L58.9561497,186.732955 L57.6039012,193.819792 L57.014556,196.592309 C55.0361609,205.180489 52.7967492,207.373292 46.6392455,207.373292 C38.4012178,207.373292 34.3298893,203.253004 29.3559428,190.882674 L23.5326041,175.498583 L22.5335713,172.964402 C19.7286587,166.07879 16.8279609,160.159293 13.3131121,154.484192 C12.1843016,152.661606 11.0020808,150.884158 9.75957523,149.147522 C3.08118632,139.814631 11.565457,118.776388 30.1249227,95.8096209 L33.2220766,92.0699199 C47.0188089,75.8046785 65.654791,58.8481067 87.3647324,44.5926503 C140.934709,9.41388487 201.283381,-2.75588128 224.535594,17.4846033 Z" fill="#FFDB1E"/>
    <path d="M197.474668,20.3018499 C233.340066,29.9534639 194.656397,64.2746031 164.249952,86.2107912 C135.434094,106.996507 113.243103,118.717427 103.074163,123.504628 C100.24817,124.840411 90.5888347,106.11628 90.5888347,115.783336 C90.5888347,119.003115 85.1839309,133.063586 83.3771488,133.74306 C72.8375863,137.696361 50.7701362,143.703525 38.3234149,143.703525 C11.3683875,143.703525 23.475372,106.996507 61.5953864,73.2699073 C68.4827781,67.1778085 73.0074548,68.2896745 79.2230941,68.2896745 C75.0767608,62.3211164 75.0999247,61.2092505 82.3347745,56.3525583 C114.509395,34.7252218 154.737322,20.2864074 171.816818,17.5839555 C174.64281,17.6920535 178.148276,20.2864074 178.148276,22.4406476 C181.314006,21.3596668 194.324381,19.4447866 197.474668,20.2941287 L197.474668,20.3018499 Z" fill="#FFE600"/>
    <path d="M87.5389247,79.8947751 C95.1443965,74.1269706 100.232727,72.096271 103.745915,60.3907936 C108.116166,61.3250698 110.239521,59.7730903 113.70638,54.9781685 C116.208079,58.5762902 126.50056,59.6727135 132.646708,60.3907936 C127.125984,63.8730959 124.485303,66.9693337 121.435393,76.6518328 C110.131423,71.9341239 96.9820638,74.3200029 87.5389247,79.8947751 L87.5389247,79.8947751 Z" fill="#FFFFFF"/>
  </g>
</svg>

<svg viewBox="0 0 256 216" xmlns="http://www.w3.org/2000/svg" preserveAspectRatio="xMidYMid" height="1em" width="1em">
  <path d="M240.382 20.866c37.348 91.165 0 140.18-31.596 167.204 7.722 27.025-23.055 32.6-34.745 19.303-34.414 11.868-104.33 11.482-154.426-38.606-27.025-27.025-5.946-87.143 65.63-127.401 61.771-34.746 123.541-54.05 155.137-20.5Z" fill="#FFDB1E"/>
  <path d="M85.246 41.366C138.12 6.643 201.258-7.896 227.07 14.573c39.626 34.514-83.915 112.592-130.242 131.03-50.189 19.975-23.164 65.63-50.189 65.63-23.164 0-19.303-30.884-40.02-59.84-12.237-17.102 18.092-70.278 78.627-110.027Z" fill="#FFF"/>
  <path d="M83.127 38.138a274.332 274.332 0 0 0-28.82 21.778L49.96 63.76C12.186 97.903-8.717 136.595 3.48 153.64a88.62 88.62 0 0 1 3.269 4.91c2.72 4.391 5.06 8.973 7.3 14.148l1.632 3.922 5.787 15.304c6.325 16.389 12.436 23.17 25.171 23.17 11.621 0 15.662-5.511 18.525-19.715l1.328-6.948.816-3.97.495-2.13.495-1.863.527-1.717.593-1.696.69-1.798c4.35-10.947 12.182-19.185 25.927-25.145l2.22-.922c26.71-10.63 69.159-36.016 98.382-60.094l4.047-3.394a264.941 264.941 0 0 0 5.725-5.029l3.58-3.307c27.879-26.315 37.264-49.055 20.686-64.735l-1.07-.97C202.918-11.57 139.28 1.264 83.127 38.138Zm141.409-20.653c13.024 11.344 5.365 30.384-19.596 54.03l-3.51 3.252c-.604.547-1.216 1.096-1.836 1.647l-3.829 3.335a294.223 294.223 0 0 1-4.038 3.388c-27.593 22.735-67.408 46.768-93.487 57.717l-2.84 1.162c-17.117 6.813-27.11 16.905-32.467 30.39l-1.123 2.978-.62 1.874-.56 1.94c-.09.336-.179.68-.268 1.036l-.536 2.286-.87 4.213-1.352 7.087-.59 2.772c-1.978 8.588-4.217 10.781-10.375 10.781-8.238 0-12.31-4.12-17.283-16.49l-5.823-15.384-1-2.535c-2.804-6.885-5.705-12.805-9.22-18.48a96.34 96.34 0 0 0-3.553-5.336c-6.679-9.333 1.805-30.372 20.365-53.338l3.097-3.74C47.02 75.805 65.655 58.848 87.365 44.593c53.57-35.18 113.918-47.349 137.17-27.108Z" fill="#FFDB1E"/>
  <path d="M197.475 20.302c35.865 9.651-2.819 43.973-33.225 65.909-28.816 20.786-51.007 32.506-61.176 37.294-2.826 1.335-12.485-17.389-12.485-7.722 0 3.22-5.405 17.28-7.212 17.96-10.54 3.953-32.607 9.96-45.054 9.96-26.955 0-14.848-36.706 23.272-70.433 6.888-6.092 11.412-4.98 17.628-4.98-4.146-5.969-4.123-7.08 3.112-11.937 32.174-21.628 72.402-36.067 89.482-38.769 2.826.108 6.331 2.702 6.331 4.857 3.166-1.081 16.176-2.996 19.327-2.147v.008Z" fill="#FFE600"/>
  <path d="M87.539 79.895c7.605-5.768 12.694-7.799 16.207-19.504 4.37.934 6.494-.618 9.96-5.413 2.502 3.598 12.795 4.695 18.94 5.413-5.52 3.482-8.16 6.578-11.21 16.26-11.305-4.717-24.454-2.331-33.897 3.244Z" fill="#FFF"/>
</svg>
